X:0561
M:C
L:1/8
Q:1/4=80 "Slow"
K:G
c'|b>ga>f g>ed<B|A>cBG   E2E>c'|b>gfa g<eTd>B|TA>GAB   G2G>b|
   g<bg>d egTd>B|A>cBD   E2E>F |G>AGD EFG>g  | d<BTA>B G2G |]

